icons/gm.svg

<?xml version="1.0" ?>
<svg xmlns="http://www.w3.org/2000/svg" xmlns:ev="http://www.w3.org/2001/xml-events" xmlns:xlink="http://www.w3.org/1999/xlink" baseProfile="full" height="136px" version="1.1" viewBox="-1028.67025 3728.0303415049325 12298.8405 2787.567992404532" width="600px">
	<defs/>
	<path d="M 5718.0,6186.0 C 5588.0,6134.0 5465.0,6089.0 5446.0,6086.0 C 5416.0,6080.0 5393.0,6088.0 5291.0,6140.0 C 5224.0,6173.0 5164.0,6200.0 5157.0,6200.0 C 5138.0,6200.0 4766.0,6039.0 4759.0,6028.0 C 4755.0,6022.0 4713.0,5912.0 4664.0,5783.0 L 4575.0,5548.0 L 4505.0,5553.0 C 4335.0,5567.0 3917.0,5586.0 2715.0,5635.0 C 2106.0,5660.0 1252.0,5690.0 1169.0,5690.0 L 1091.0,5690.0 L 1084.0,5655.0 C 1078.0,5622.0 1045.0,5586.0 1030.0,5595.0 C 1026.0,5598.0 1014.0,5629.0 1004.0,5665.0 C 994.0,5701.0 981.0,5730.0 976.0,5730.0 C 952.0,5730.0 890.0,5706.0 890.0,5696.0 C 890.0,5690.0 908.0,5667.0 931.0,5644.0 C 969.0,5605.0 973.0,5596.0 983.0,5521.0 C 993.0,5442.0 993.0,5439.0 969.0,5412.0 C 902.0,5338.0 902.0,5347.0 972.0,5302.0 C 1007.0,5280.0 1054.0,5254.0 1077.0,5245.0 L 1118.0,5229.0 L 1122.0,5122.0 L 1126.0,5015.0 L 1083.0,4963.0 C 1046.0,4919.0 1042.0,4911.0 1057.0,4907.0 C 1067.0,4904.0 1111.0,4894.0 1155.0,4884.0 C 1218.0,4870.0 1247.0,4857.0 1290.0,4824.0 C 1320.0,4801.0 1355.0,4779.0 1367.0,4776.0 C 1379.0,4772.0 1437.0,4778.0 1495.0,4790.0 C 1591.0,4808.0 1604.0,4809.0 1630.0,4795.0 C 1646.0,4787.0 1673.0,4780.0 1690.0,4780.0 C 1716.0,4780.0 1723.0,4786.0 1736.0,4816.0 C 1744.0,4836.0 1749.0,4858.0 1746.0,4866.0 C 1743.0,4873.0 1747.0,4883.0 1754.0,4887.0 C 1762.0,4892.0 1774.0,4911.0 1782.0,4930.0 C 1795.0,4961.0 1797.0,4963.0 1802.0,4943.0 C 1805.0,4931.0 1802.0,4909.0 1794.0,4894.0 C 1776.0,4859.0 1776.0,4860.0 1808.0,4860.0 C 1829.0,4860.0 1863.0,4882.0 1936.0,4943.0 C 1990.0,4988.0 2055.0,5034.0 2080.0,5045.0 C 2105.0,5056.0 2132.0,5072.0 2140.0,5082.0 C 2148.0,5091.0 2195.0,5120.0 2244.0,5146.0 L 2333.0,5194.0 L 2404.0,5157.0 C 2468.0,5124.0 2486.0,5120.0 2595.0,5111.0 C 2666.0,5105.0 2739.0,5105.0 2775.0,5110.0 C 2810.0,5115.0 2898.0,5115.0 2985.0,5110.0 C 3096.0,5103.0 3148.0,5104.0 3183.0,5113.0 C 3217.0,5122.0 3277.0,5123.0 3411.0,5116.0 C 3588.0,5108.0 3594.0,5108.0 3652.0,5131.0 C 3685.0,5144.0 3731.0,5171.0 3754.0,5192.0 C 3797.0,5229.0 3845.0,5247.0 3912.0,5252.0 C 3946.0,5254.0 3955.0,5248.0 4005.0,5198.0 C 4072.0,5131.0 4091.0,5131.0 4128.0,5201.0 C 4162.0,5265.0 4176.0,5277.0 4232.0,5290.0 C 4323.0,5312.0 4450.0,5275.0 4450.0,5226.0 C 4450.0,5207.0 4450.0,5207.0 4429.0,5226.0 C 4413.0,5240.0 4389.0,5246.0 4329.0,5249.0 C 4262.0,5252.0 4247.0,5249.0 4220.0,5230.0 C 4194.0,5211.0 4190.0,5203.0 4190.0,5161.0 C 4190.0,5094.0 4163.0,5070.0 4088.0,5070.0 C 4032.0,5070.0 4031.0,5070.0 3985.0,5125.0 C 3943.0,5173.0 3933.0,5180.0 3901.0,5180.0 C 3870.0,5179.0 3860.0,5173.0 3830.0,5135.0 C 3811.0,5110.0 3788.0,5090.0 3780.0,5090.0 C 3772.0,5090.0 3709.0,5084.0 3640.0,5077.0 C 3571.0,5070.0 3499.0,5063.0 3480.0,5062.0 C 3461.0,5061.0 3438.0,5059.0 3430.0,5058.0 C 3422.0,5056.0 3380.0,5064.0 3337.0,5075.0 L 3258.0,5094.0 L 3217.0,5072.0 C 3182.0,5054.0 3147.0,5049.0 3015.0,5040.0 C 2927.0,5034.0 2840.0,5027.0 2822.0,5024.0 C 2804.0,5021.0 2763.0,5024.0 2731.0,5031.0 C 2675.0,5042.0 2671.0,5041.0 2633.0,5016.0 L 2594.0,4990.0 L 2505.0,5020.0 C 2456.0,5036.0 2397.0,5050.0 2373.0,5050.0 C 2349.0,5050.0 2321.0,5055.0 2311.0,5062.0 C 2294.0,5072.0 2284.0,5066.0 2228.0,5014.0 C 2192.0,4982.0 2136.0,4939.0 2101.0,4920.0 L 2039.0,4885.0 L 2013.0,4799.0 L 1987.0,4713.0 L 1906.0,4696.0 C 1800.0,4674.0 1729.0,4651.0 1708.0,4632.0 C 1697.0,4623.0 1680.0,4620.0 1664.0,4623.0 C 1625.0,4630.0 1570.0,4602.0 1570.0,4574.0 C 1570.0,4531.0 1501.0,4527.0 1472.0,4568.0 C 1452.0,4595.0 1450.0,4595.0 1330.0,4598.0 C 1231.0,4601.0 1209.0,4599.0 1212.0,4588.0 C 1215.0,4581.0 1232.0,4574.0 1251.0,4572.0 C 1302.0,4567.0 1312.0,4550.0 1264.0,4550.0 C 1212.0,4550.0 1190.0,4527.0 1190.0,4472.0 C 1190.0,4447.0 1182.0,4417.0 1169.0,4398.0 L 1148.0,4365.0 L 1155.0,4395.0 C 1165.0,4437.0 1165.0,4487.0 1156.0,4538.0 C 1149.0,4573.0 1150.0,4580.0 1164.0,4580.0 C 1173.0,4580.0 1180.0,4586.0 1180.0,4593.0 C 1180.0,4601.0 1125.0,4620.0 1033.0,4645.0 C 896.0,4682.0 886.0,4687.0 867.0,4718.0 C 845.0,4755.0 833.0,4757.0 782.0,4731.0 C 717.0,4699.0 700.0,4724.0 750.0,4781.0 C 766.0,4800.0 787.0,4832.0 796.0,4853.0 C 813.0,4891.0 813.0,4893.0 784.0,4977.0 C 759.0,5050.0 750.0,5066.0 717.0,5088.0 C 675.0,5116.0 674.0,5118.0 696.0,5206.0 C 713.0,5271.0 713.0,5271.0 690.0,5295.0 C 671.0,5315.0 657.0,5320.0 618.0,5320.0 C 592.0,5320.0 570.0,5324.0 570.0,5330.0 C 570.0,5341.0 517.0,5370.0 496.0,5370.0 C 487.0,5370.0 440.0,5333.0 391.0,5289.0 C 326.0,5229.0 299.0,5197.0 289.0,5167.0 C 275.0,5125.0 230.0,5086.0 117.0,5019.0 C 66.0,4989.0 59.0,4980.0 53.0,4947.0 C 47.0,4909.0 32.0,4886.0 8.0,4878.0 C -2.0,4874.0 -2.0,4868.0 8.0,4846.0 C 17.0,4827.0 18.0,4794.0 14.0,4739.0 C 7.0,4663.0 8.0,4658.0 32.0,4632.0 C 67.0,4595.0 72.0,4526.0 53.0,4376.0 L 38.0,4258.0 L 63.0,4231.0 C 77.0,4217.0 97.0,4174.0 109.0,4136.0 C 127.0,4073.0 128.0,4064.0 114.0,4032.0 C 107.0,4013.0 100.0,3996.0 100.0,3994.0 C 100.0,3992.0 117.0,3983.0 137.0,3975.0 C 179.0,3957.0 217.0,3963.0 236.0,3988.0 C 246.0,4002.0 245.0,4009.0 229.0,4026.0 C 212.0,4044.0 211.0,4051.0 221.0,4074.0 C 231.0,4094.0 240.0,4100.0 266.0,4100.0 C 291.0,4100.0 304.0,4107.0 320.0,4130.0 L 342.0,4160.0 L 320.0,4195.0 L 299.0,4229.0 L 322.0,4244.0 C 344.0,4258.0 451.0,4256.0 1430.0,4225.0 C 2345.0,4196.0 3398.0,4169.0 3408.0,4175.0 C 3409.0,4176.0 3420.0,4294.0 3431.0,4436.0 C 3442.0,4578.0 3453.0,4704.0 3455.0,4716.0 C 3459.0,4736.0 3468.0,4738.0 3572.0,4742.0 C 3664.0,4747.0 3698.0,4753.0 3752.0,4775.0 L 3819.0,4802.0 L 3983.0,4747.0 L 4146.0,4693.0 L 4300.0,4771.0 C 4385.0,4814.0 4462.0,4849.0 4471.0,4849.0 C 4479.0,4850.0 4566.0,4815.0 4662.0,4771.0 L 4838.0,4692.0 L 5002.0,4724.0 L 5165.0,4756.0 L 5282.0,4829.0 C 5346.0,4869.0 5403.0,4907.0 5408.0,4913.0 C 5413.0,4920.0 5436.0,5008.0 5460.0,5110.0 L 5503.0,5295.0 L 5646.0,5393.0 C 5787.0,5489.0 5789.0,5490.0 5847.0,5489.0 L 5905.0,5489.0 L 5965.0,5367.0 L 6025.0,5245.0 L 6233.0,5097.0 L 6442.0,4950.0 L 6548.0,4944.0 C 6632.0,4939.0 6684.0,4929.0 6790.0,4898.0 C 6864.0,4876.0 6932.0,4854.0 6940.0,4850.0 C 6948.0,4845.0 6966.0,4811.0 6980.0,4774.0 L 7005.0,4706.0 L 7150.0,4618.0 L 7295.0,4530.0 L 7426.0,4553.0 L 7556.0,4576.0 L 7607.0,4531.0 C 7652.0,4491.0 7676.0,4479.0 7807.0,4436.0 L 7955.0,4388.0 L 8065.0,4279.0 L 8175.0,4170.0 L 8367.0,4170.0 L 8558.0,4170.0 L 8630.0,4126.0 L 8701.0,4082.0 L 8787.0,4105.0 C 8863.0,4126.0 8883.0,4128.0 8969.0,4120.0 C 9022.0,4116.0 9068.0,4115.0 9072.0,4119.0 C 9076.0,4123.0 9099.0,4166.0 9123.0,4216.0 L 9167.0,4306.0 L 9283.0,4298.0 L 9400.0,4290.0 L 9492.0,4336.0 L 9585.0,4383.0 L 9750.0,4396.0 C 9841.0,4403.0 9930.0,4410.0 9947.0,4410.0 C 9984.0,4410.0 9997.0,4425.0 10156.0,4642.0 L 10241.0,4759.0 L 10060.0,4994.0 L 9878.0,5229.0 L 9817.0,5249.0 C 9712.0,5283.0 9676.0,5284.0 9560.0,5255.0 C 9490.0,5238.0 9415.0,5227.0 9335.0,5223.0 C 9251.0,5220.0 9179.0,5209.0 9096.0,5188.0 C 8984.0,5161.0 8970.0,5154.0 8869.0,5085.0 C 8767.0,5016.0 8753.0,5010.0 8649.0,4986.0 C 8541.0,4960.0 8534.0,4960.0 8407.0,4971.0 L 8275.0,4983.0 L 8130.0,5099.0 L 7985.0,5215.0 L 7935.0,5369.0 L 7884.0,5524.0 L 7679.0,5588.0 L 7473.0,5652.0 L 7320.0,5586.0 C 7235.0,5550.0 7162.0,5520.0 7158.0,5520.0 C 7154.0,5520.0 7099.0,5554.0 7035.0,5595.0 L 6920.0,5670.0 L 6920.0,5737.0 C 6920.0,5801.0 6917.0,5812.0 6858.0,5927.0 L 6795.0,6049.0 L 6619.0,6124.0 L 6442.0,6198.0 L 6365.0,6189.0 C 6288.0,6181.0 6288.0,6181.0 6212.0,6219.0 C 6131.0,6259.0 6055.0,6280.0 5992.0,6279.0 C 5970.0,6279.0 5859.0,6241.0 5718.0,6186.0 M 1378.0,4489.0 C 1381.0,4428.0 1380.0,4426.0 1363.0,4442.0 C 1348.0,4458.0 1347.0,4464.0 1359.0,4495.0 C 1369.0,4525.0 1369.0,4534.0 1358.0,4547.0 C 1347.0,4561.0 1347.0,4562.0 1360.0,4558.0 C 1371.0,4555.0 1376.0,4536.0 1378.0,4489.0" fill="pink"/>
</svg>

<?xml version="1.0" standalone="no"?>
<!DOCTYPE svg PUBLIC "-//W3C//DTD SVG 20010904//EN"
 "http://www.w3.org/TR/2001/REC-SVG-20010904/DTD/svg10.dtd">
<svg version="1.0" xmlns="http://www.w3.org/2000/svg"
 width="1024.000000pt" height="1024.000000pt" viewBox="0 0 1024.000000 1024.000000"
 preserveAspectRatio="xMidYMid meet">
<metadata>
Created by potrace 1.10, written by Peter Selinger 2001-2011
</metadata>
<g transform="translate(0.000000,1024.000000) scale(0.100000,-0.100000)"
fill="#000000" stroke="none">
<path d="M5718 6186 c-130 -52 -253 -97 -272 -100 -30 -6 -53 2 -155 54 -67
33 -127 60 -134 60 -19 0 -391 -161 -398 -172 -4 -6 -46 -116 -95 -245 l-89
-235 -70 5 c-170 14 -588 33 -1790 82 -609 25 -1463 55 -1546 55 l-78 0 -7
-35 c-6 -33 -39 -69 -54 -60 -4 3 -16 34 -26 70 -10 36 -23 65 -28 65 -24 0
-86 -24 -86 -34 0 -6 18 -29 41 -52 38 -39 42 -48 52 -123 10 -79 10 -82 -14
-109 -67 -74 -67 -65 3 -110 35 -22 82 -48 105 -57 l41 -16 4 -107 4 -107 -43
-52 c-37 -44 -41 -52 -26 -56 10 -3 54 -13 98 -23 63 -14 92 -27 135 -60 30
-23 65 -45 77 -48 12 -4 70 2 128 14 96 18 109 19 135 5 16 -8 43 -15 60 -15
26 0 33 6 46 36 8 20 13 42 10 50 -3 7 1 17 8 21 8 5 20 24 28 43 13 31 15 33
20 13 3 -12 0 -34 -8 -49 -18 -35 -18 -34 14 -34 21 0 55 22 128 83 54 45 119
91 144 102 25 11 52 27 60 37 8 9 55 38 104 64 l89 48 71 -37 c64 -33 82 -37
191 -46 71 -6 144 -6 180 -1 35 5 123 5 210 0 111 -7 163 -6 198 3 34 9 94 10
228 3 177 -8 183 -8 241 15 33 13 79 40 102 61 43 37 91 55 158 60 34 2 43 -4
93 -54 67 -67 86 -67 123 3 34 64 48 76 104 89 91 22 218 -15 218 -64 0 -19 0
-19 -21 0 -16 14 -40 20 -100 23 -67 3 -82 0 -109 -19 -26 -19 -30 -27 -30
-69 0 -67 -27 -91 -102 -91 -56 0 -57 0 -103 55 -42 48 -52 55 -84 55 -31 -1
-41 -7 -71 -45 -19 -25 -42 -45 -50 -45 -8 0 -71 -6 -140 -13 -69 -7 -141 -14
-160 -15 -19 -1 -42 -3 -50 -4 -8 -2 -50 6 -93 17 l-79 19 -41 -22 c-35 -18
-70 -23 -202 -32 -88 -6 -175 -13 -193 -16 -18 -3 -59 0 -91 7 -56 11 -60 10
-98 -15 l-39 -26 -89 30 c-49 16 -108 30 -132 30 -24 0 -52 5 -62 12 -17 10
-27 4 -83 -48 -36 -32 -92 -75 -127 -94 l-62 -35 -26 -86 -26 -86 -81 -17
c-106 -22 -177 -45 -198 -64 -11 -9 -28 -12 -44 -9 -39 7 -94 -21 -94 -49 0
-43 -69 -47 -98 -6 -20 27 -22 27 -142 30 -99 3 -121 1 -118 -10 3 -7 20 -14
39 -16 51 -5 61 -22 13 -22 -52 0 -74 -23 -74 -78 0 -25 -8 -55 -21 -74 l-21
-33 7 30 c10 42 10 92 1 143 -7 35 -6 42 8 42 9 0 16 6 16 13 0 8 -55 27 -147
52 -137 37 -147 42 -166 73 -22 37 -34 39 -85 13 -65 -32 -82 -7 -32 50 16 19
37 51 46 72 17 38 17 40 -12 124 -25 73 -34 89 -67 111 -42 28 -43 30 -21 118
17 65 17 65 -6 89 -19 20 -33 25 -72 25 -26 0 -48 4 -48 10 0 11 -53 40 -74
40 -9 0 -56 -37 -105 -81 -65 -60 -92 -92 -102 -122 -14 -42 -59 -81 -172
-148 -51 -30 -58 -39 -64 -72 -6 -38 -21 -61 -45 -69 -10 -4 -10 -10 0 -32 9
-19 10 -52 6 -107 -7 -76 -6 -81 18 -107 35 -37 40 -106 21 -256 l-15 -118 25
-27 c14 -14 34 -57 46 -95 18 -63 19 -72 5 -104 -7 -19 -14 -36 -14 -38 0 -2
17 -11 37 -19 42 -18 80 -12 99 13 10 14 9 21 -7 38 -17 18 -18 25 -8 48 10
20 19 26 45 26 25 0 38 7 54 30 l22 30 -22 35 -21 34 23 15 c22 14 129 12
1108 -19 915 -29 1968 -56 1978 -50 1 1 12 119 23 261 11 142 22 268 24 280 4
20 13 22 117 26 92 5 126 11 180 33 l67 27 164 -55 163 -54 154 78 c85 43 162
78 171 78 8 1 95 -34 191 -78 l176 -79 164 32 163 32 117 73 c64 40 121 78
126 84 5 7 28 95 52 197 l43 185 143 98 c141 96 143 97 201 96 l58 0 60 -122
60 -122 208 -148 209 -147 106 -6 c84 -5 136 -15 242 -46 74 -22 142 -44 150
-48 8 -5 26 -39 40 -76 l25 -68 145 -88 145 -88 131 23 130 23 51 -45 c45 -40
69 -52 200 -95 l148 -48 110 -109 110 -109 192 0 191 0 72 -44 71 -44 86 23
c76 21 96 23 182 15 53 -4 99 -5 103 -1 4 4 27 47 51 97 l44 90 116 -8 117 -8
92 46 93 47 165 13 c91 7 180 14 197 14 37 0 50 15 209 232 l85 117 -181 235
-182 235 -61 20 c-105 34 -141 35 -257 6 -70 -17 -145 -28 -225 -32 -84 -3
-156 -14 -239 -35 -112 -27 -126 -34 -227 -103 -102 -69 -116 -75 -220 -99
-108 -26 -115 -26 -242 -15 l-132 12 -145 116 -145 116 -50 154 -51 155 -205
64 -206 64 -153 -66 c-85 -36 -158 -66 -162 -66 -4 0 -59 34 -123 75 l-115 75
0 67 c0 64 -3 75 -62 190 l-63 122 -176 75 -177 74 -77 -9 c-77 -8 -77 -8
-153 30 -81 40 -157 61 -220 60 -22 0 -133 -38 -274 -93z m-4340 -1697 c3 -61
2 -63 -15 -47 -15 16 -16 22 -4 53 10 30 10 39 -1 52 -11 14 -11 15 2 11 11
-3 16 -22 18 -69z"/>
</g>
</svg>
